X:1
T:Darwen, 886.886
T:Darwen, 886.886
T:Edward Harwood (1707-1787)
T:Public Domain Courtesy of the Cyber Hymnal™
C:Edward Harwood (1707-1787)
Z:Public Domain
Z:Courtesy of the Cyber Hymnal™
%%score ( 1 2 ) ( 3 4 )
L:1/8
Q:1/4=140
M:4/4
K:A
V:1 treble 
V:2 treble 
V:3 bass 
V:4 bass 
V:1
 [EA]2 | [EA]4 E4 | ([DF]3 [EG]) [EA]4 | [FB]4 (A2 G2) | [EA]6 [Ec]2 | [EB]4 [^DA]4 | %6
 (G2 B2) ([Ec]2 [FA]2) | [EG]4 [^DF]4 | E6 E2 | A4 E4 | F4 [EG]4 | [EA]8 | z4 [ce]4 | %13
 ([ce]3 [df] [ce]2) [Bd]2 | [Ac]4 [Ac]4 | ([Bd]3 [ce] [Bd]2) [Ac]2 | [GB]6 [EB]2 | [Ec]4 [EB]4 | %18
 [Ec]4 [EB]4 | [Ec]4 [A^d]4 | [Ge]6 [Ed]2 | (c2 G2 A2) [FB]2 | [Ec]4 [EGB]4 | [EA]8 |] %24
V:2
 x2 | x4 E4 | x8 | x4 E4 | x8 | x8 | E4 x4 | x8 | E6 E2 | A4 E4 | F4 x4 | x8 | x8 | x8 | x8 | x8 | %16
 x8 | x8 | x8 | x8 | x8 | E6 x2 | x8 | x8 |] %24
V:3
 [A,,C]2 | [A,,C]4 [C,A,]4 | (A,3 B,) [C,A,]4 | (F,2 D2) (C2 B,2) | [A,,C]6 A,2 | [G,B,]4 [F,B,]4 | %6
 (B,2 G,2) (A,2 C2) | [B,,B,]4 [B,,A,]4 | [E,G,]6 E,2 | A,4 E,4 | F,4 [E,B,]4 | [A,,C]8 | z4 A,4 | %13
 A,6 A,2 | A,4 A,,4 | E,6 E,2 | E,6 [E,G,]2 | A,4 [G,B,]4 | A,4 [E,G,]4 | A,4 [F,B,]4 | %20
 [E,B,]6 [E,B,]2 | A,2 ([G,B,]2 A,2) [D,A,]2 | [E,A,]4 [E,D]4 | [A,,C]8 |] %24
V:4
 x2 | x8 | D,4 x4 | D,4 E,4 | x6 A,2 | x8 | E,4 A,,4 | x8 | x6 E,2 | A,4 E,4 | F,4 x4 | x8 | %12
 x4 A,4 | A,6 A,2 | A,4 A,,4 | E,6 E,2 | E,6 x2 | A,4 x4 | A,4 x4 | A,4 x4 | x8 | (A,2 A,2) x4 | %22
 x8 | x8 |] %24

